X:530
T:Meg Merriliees
R:Country Dance
B:The Athole Collection
M:C|
L:1/8
K:A
cd|edcd eagf|feee e2cd|efec efec|cBBB B2cd|edcd eagf|
feee e2cd|efec BABc|A2AA A2||e|^defe =deBe|ceAe BeGe|
^defe =dcdB|BAAA A2e2|^defe =ceBe|ceAe BeGe|BABc defg|
agag a2||

